_site/icons/colour_life_buoy.svg

<svg clip-rule="evenodd" fill-rule="evenodd" height="24" stroke-linecap="round" stroke-linejoin="round" width="24" xmlns="http://www.w3.org/2000/svg"><path d="m12 8 2.83 1.17 4.24-4.24-7.07-2.93-7.07 2.931 4.24 4.239z" fill="#fff"/><path d="m12 16.339 2.83-1.17 4.24 4.24-7.07 2.93-7.07-2.93 4.24-4.24z" fill="#fff"/><path d="m12 2c5.519 0 10 4.481 10 10s-4.481 10-10 10-10-4.481-10-10 4.481-10 10-10zm0 6c-2.208 0-4 1.792-4 4s1.792 4 4 4 4-1.792 4-4-1.792-4-4-4z" fill="#e67e22" stroke="#000" stroke-width="2"/><g fill="#fff"><path d="m4.396 5.816c-.391-.39-.392-1.024-.002-1.415.389-.39 1.023-.391 1.414-.002l3.896 3.885c.391.39.392 1.024.002 1.415-.389.39-1.023.391-1.414.002z"/><path d="m14.48 15.761c-.392-.389-.393-1.023-.004-1.414.39-.391 1.023-.392 1.414-.003l3.785 3.768c.392.389.393 1.023.004 1.414-.39.391-1.023.393-1.415.003z"/><path d="m15.909 9.682c-.38.4-1.014.415-1.414.035-.399-.381-.415-1.014-.034-1.414l3.53-3.708c.38-.399 1.014-.415 1.414-.034.399.38.415 1.014.034 1.414z"/><path d="m5.82 19.766c-.385.396-1.018.406-1.414.022-.397-.384-.406-1.018-.022-1.414l3.896-4.017c.385-.397 1.018-.406 1.414-.022.397.384.406 1.018.022 1.414z"/></g><path d="m12 2c5.519 0 10 4.481 10 10s-4.481 10-10 10-10-4.481-10-10 4.481-10 10-10zm0 6c-2.208 0-4 1.792-4 4s1.792 4 4 4 4-1.792 4-4-1.792-4-4-4z" fill="none" stroke="#000" stroke-width="2"/></svg>

<?xml version="1.0" encoding="UTF-8" standalone="no"?><!DOCTYPE svg PUBLIC "-//W3C//DTD SVG 1.1//EN" "http://www.w3.org/Graphics/SVG/1.1/DTD/svg11.dtd"><svg width="24px" height="24px" version="1.1" xmlns="http://www.w3.org/2000/svg" xmlns:xlink="http://www.w3.org/1999/xlink" xml:space="preserve" xmlns:serif="http://www.serif.com/" style="fill-rule:evenodd;clip-rule:evenodd;stroke-linecap:round;stroke-linejoin:round;"><path d="M12,8L14.83,9.17L19.07,4.93L12,2L4.93,4.931L9.17,9.17L12,8Z" style="fill:white;"/><path d="M12,16.339L14.83,15.169L19.07,19.409L12,22.339L4.93,19.409L9.17,15.169L12,16.339Z" style="fill:white;"/><path d="M12,2C17.519,2 22,6.481 22,12C22,17.519 17.519,22 12,22C6.481,22 2,17.519 2,12C2,6.481 6.481,2 12,2ZM12,8C9.792,8 8,9.792 8,12C8,14.208 9.792,16 12,16C14.208,16 16,14.208 16,12C16,9.792 14.208,8 12,8Z" style="fill:rgb(230,126,34);stroke:black;stroke-width:2px;"/><g><path d="M4.396,5.816C4.005,5.426 4.004,4.792 4.394,4.401C4.783,4.011 5.417,4.01 5.808,4.399L9.704,8.284C10.095,8.674 10.096,9.308 9.706,9.699C9.317,10.089 8.683,10.09 8.292,9.701L4.396,5.816Z" style="fill:white;"/><path d="M14.48,15.761C14.088,15.372 14.087,14.738 14.476,14.347C14.866,13.956 15.499,13.955 15.89,14.344L19.675,18.112C20.067,18.501 20.068,19.135 19.679,19.526C19.289,19.917 18.656,19.919 18.264,19.529L14.48,15.761Z" style="fill:white;"/><path d="M15.909,9.682C15.529,10.082 14.895,10.097 14.495,9.717C14.096,9.336 14.08,8.703 14.461,8.303L17.991,4.595C18.371,4.196 19.005,4.18 19.405,4.561C19.804,4.941 19.82,5.575 19.439,5.975L15.909,9.682Z" style="fill:white;"/><path d="M5.82,19.766C5.435,20.162 4.802,20.172 4.406,19.788C4.009,19.404 4,18.77 4.384,18.374L8.28,14.357C8.665,13.96 9.298,13.951 9.694,14.335C10.091,14.719 10.1,15.353 9.716,15.749L5.82,19.766Z" style="fill:white;"/></g><path d="M12,2C17.519,2 22,6.481 22,12C22,17.519 17.519,22 12,22C6.481,22 2,17.519 2,12C2,6.481 6.481,2 12,2ZM12,8C9.792,8 8,9.792 8,12C8,14.208 9.792,16 12,16C14.208,16 16,14.208 16,12C16,9.792 14.208,8 12,8Z" style="fill:none;stroke:black;stroke-width:2px;"/></svg>
